blockchains/ethereum/assets/0x3845badAde8e6dFF049820680d1F14bD3903a5d0/logo.svg

<svg fill="none" height="250" viewBox="0 0 250 250" width="250" xmlns="http://www.w3.org/2000/svg" xmlns:xlink="http://www.w3.org/1999/xlink"><clipPath id="a"><path d="m0 0h250v250h-250z"/></clipPath><g clip-path="url(#a)"><path d="m125 250c69.036 0 125-55.964 125-125 0-69.0356-55.964-125-125-125-69.0356 0-125 55.9644-125 125 0 69.036 55.9644 125 125 125z" fill="#00adef"/><path d="m82.9998 59-13.5 13.5v53.5l13.5 13.5h53.5002v27h-26.5v-13.5h-40.5002v27l13.5 13.5h80.5002l13.5-13.5v-54l-13.5-13.5h-53.5v-27h27v13.5h40.5v-27l-13.5-13.5h-81.0002z" fill="#fff"/></g></svg>

<svg width="250" height="250" viewBox="0 0 250 250" fill="none" xmlns="http://www.w3.org/2000/svg">
<g clip-path="url(#clip0_31_1158)">
<path d="M125 250C194.036 250 250 194.036 250 125C250 55.9644 194.036 0 125 0C55.9644 0 0 55.9644 0 125C0 194.036 55.9644 250 125 250Z" fill="#00ADEF"/>
<path d="M82.9998 59L69.4998 72.5V126L82.9998 139.5H136.5V166.5H110V153H69.4998V180L82.9998 193.5H163.5L177 180V126L163.5 112.5H110V85.5H137V99H177.5V72L164 58.5H82.9998V59Z" fill="white"/>
</g>
<defs>
<clipPath id="clip0_31_1158">
<rect width="250" height="250" fill="white"/>
</clipPath>
</defs>
</svg>
